packages/webapp/public/images/template-logos/airtable.svg

<svg width="62" height="62" viewBox="0 0 62 62" fill="none" xmlns="http://www.w3.org/2000/svg">
<g clip-path="url(#clip0_496_903)">
<path d="M28.401 13.4589L12.2024 20.1615C11.3016 20.5343 11.311 21.814 12.2174 22.1733L28.4835 28.6238C29.9126 29.1906 31.5043 29.1906 32.9334 28.6238L49.1997 22.1731C50.1059 21.814 50.1158 20.5346 49.2145 20.1618L33.0164 13.4586C31.5386 12.8471 29.8785 12.8471 28.4007 13.4586" fill="#FCB400"/>
<path d="M32.1517 32.1459V48.2602C32.1517 49.0264 32.9245 49.5515 33.6369 49.269L51.7623 42.2336C51.9645 42.1535 52.1379 42.0145 52.2601 41.8346C52.3822 41.6547 52.4475 41.4422 52.4475 41.2248V25.1107C52.4475 24.3443 51.6747 23.8194 50.9622 24.1019L32.8368 31.1373C32.6347 31.2175 32.4614 31.3565 32.3392 31.5364C32.217 31.7163 32.1517 31.9284 32.1517 32.1459Z" fill="#18BFFF"/>
<path d="M27.9191 32.9776L22.5399 35.5749L21.9937 35.8389L10.6385 41.2797C9.91897 41.627 9 41.1024 9 40.3028V25.1784C9 24.8891 9.14833 24.6394 9.34725 24.4515C9.42886 24.3703 9.52144 24.3008 9.6223 24.2452C9.89342 24.0824 10.2805 24.0389 10.6095 24.1691L27.8287 30.9918C28.704 31.3391 28.7727 32.5653 27.9191 32.9776Z" fill="#F82B60"/>
<path d="M27.919 32.9776L22.5398 35.5749L9.34717 24.4513C9.42879 24.3701 9.52137 24.3007 9.62222 24.2452C9.89334 24.0824 10.2804 24.0389 10.6095 24.1691L27.8286 30.9918C28.7039 31.3391 28.7727 32.5653 27.919 32.9776Z" fill="black" fill-opacity="0.25"/>
</g>
<defs>
<clipPath id="clip0_496_903">
<rect width="44" height="36.8376" fill="white" transform="translate(9 13)"/>
</clipPath>
</defs>
</svg>

<svg xmlns="http://www.w3.org/2000/svg" width="62" height="62" fill="none"><g clip-path="url(#A)"><path d="M28.401 13.459l-16.198 6.703a1.09 1.09 0 0 0 .015 2.012l16.266 6.45c1.429.567 3.021.567 4.45 0L49.2 22.173a1.09 1.09 0 0 0 .015-2.011l-16.198-6.703c-1.478-.611-3.138-.611-4.616 0" fill="#fcb400"/><path d="M32.152 32.146V48.26c0 .766.773 1.291 1.485 1.009l18.125-7.035c.202-.08.375-.219.498-.399s.188-.392.187-.61V25.111c0-.766-.773-1.291-1.485-1.009l-18.125 7.035c-.202.08-.375.219-.498.399s-.187.392-.187.609z" fill="#18bfff"/><path d="M27.919 32.977l-5.379 2.597-.546.264-11.355 5.441c-.72.347-1.639-.177-1.639-.977V25.178c0-.289.148-.539.347-.727.082-.081.174-.151.275-.206.271-.163.658-.206.987-.076l17.219 6.823c.875.347.944 1.573.09 1.986z" fill="#f82b60"/><path d="M27.919 32.977l-5.379 2.597L9.347 24.451c.082-.081.174-.151.275-.206.271-.163.658-.206.987-.076l17.219 6.823c.875.347.944 1.573.09 1.986z" fill="#000" fill-opacity=".25"/></g><defs><clipPath id="A"><path fill="#fff" transform="translate(9 13)" d="M0 0h44v36.838H0z"/></clipPath></defs></svg>
